X: 423
T:Proch dolor
N: Derived from Jos9904-Proch_dolor.krn
C: Josquin des Prez
%%abc-version 2.0
%%abcx-abcm2ps-target-version 5.9.1 (29 Sep 2008)
%%abc-creator hum2abc beta
%%abcx-conversion-date 2019/02/12 16:15:56
%%abc-edited-by Jesse Rodin
%%abc-edited-by Mauricio Rodriguez 2012/01/31
%%abcx-initial-encoding-date 2012/01/31/
%%humdrum-veritas 4274561117
%%humdrum-veritas-data 2010184788
%%linebreak <none>
%%barnumbers 0
L: 1/4
M: 2/1
Q: 1/2=120
V: 1 clef=treble
V: 2 clef=treble
V: 3 clef=treble-8
V: 4 clef=treble-8
V: 5 clef=treble-8
V: 6 clef=bass
V: 7 clef=bass
K: C
[V:1] z8 | 
[V:2] z8 | 
[V:3] z8 | 
[V:4] z8 | 
[V:5] d8- | 
[V:6] D,8- | 
[V:7] z8 | 
[V:1] A8- | 
[V:2] z8 | 
[V:3] z8 | 
[V:4] z8 | 
[V:5] d4A4 | 
[V:6] D,8 | 
[V:7] z8 | 
[V:1] A4E4 | 
[V:2] z8 | 
[V:3] z8 | 
[V:4] z8 | 
[V:5] A8 | 
[V:6] A,,8 | 
[V:7] z8 | 
[V:1] E4A4- | 
[V:2] z8 | 
[V:3] z8 | 
[V:4] z8 | 
[V:5] c8 | 
[V:6] A,,8 | 
[V:7] z8 | 
[V:1] A4D4 | 
[V:2] z8 | 
[V:3] z8 | 
[V:4] z8 | 
[V:5] F4F4 | 
[V:6] z8 | 
[V:7] D,8- | 
[V:1] D4d4- | 
[V:2] z8 | 
[V:3] z8 | 
[V:4] z8 | 
[V:5] z4f4- | 
[V:6] A,8- | 
[V:7] D,8 | 
[V:1] d4c4 | 
[V:2] A8- | 
[V:3] z8 | 
[V:4] z8 | 
[V:5] f4e4 | 
[V:6] A,8 | 
[V:7] A,,8 | 
[V:1] c8 | 
[V:2] A8 | 
[V:3] z8 | 
[V:4] z8 | 
[V:5] e8 | 
[V:6] E,8 | 
[V:7] A,,8 | 
[V:1] z4c4 | 
[V:2] G8- | 
[V:3] e8- | 
[V:4] z8 | 
[V:5] z4E4- | 
[V:6] E,6C,2 | 
[V:7] z8 | 
[V:1] c4c4 | 
[V:2] G8 | 
[V:3] e8 | 
[V:4] z8 | 
[V:5] E4E4 | 
[V:6] C,8 | 
[V:7] z8 | 
[V:1] A8 | 
[V:2] F8- | 
[V:3] d8- | 
[V:4] z8 | 
[V:5] F6D2 | 
[V:6] z8 | 
[V:7] D,4D,4- | 
[V:1] A4A4 | 
[V:2] F8 | 
[V:3] d8 | 
[V:4] z8 | 
[V:5] A8 | 
[V:6] z8 | 
[V:7] D,4D,4 | 
[V:1] c6c2 | 
[V:2] E8- | 
[V:3] c8- | 
[V:4] A8- | 
[V:5] z8 | 
[V:6] z8 | 
[V:7] A,,8 | 
[V:1] c4A4 | 
[V:2] E8 | 
[V:3] c8 | 
[V:4] A8 | 
[V:5] z8 | 
[V:6] z8 | 
[V:7] A,,4A,,4 | 
[V:1] B8- | 
[V:2] G8 | 
[V:3] B8- | 
[V:4] G8- | 
[V:5] z4e4 | 
[V:6] z8 | 
[V:7] E,6E,2 | 
[V:1] B8 | 
[V:2] G8 | 
[V:3] B8 | 
[V:4] G8 | 
[V:5] e4e4 | 
[V:6] z8 | 
[V:7] E,4E,4 | 
[V:1] z8 | 
[V:2] A8- | 
[V:3] d8 | 
[V:4] F8- | 
[V:5] f8 | 
[V:6] z4D,4 | 
[V:7] D,4A,4 | 
[V:1] z4A4 | 
[V:2] A8 | 
[V:3] d8 | 
[V:4] F8 | 
[V:5] f4d4 | 
[V:6] D,4D,4 | 
[V:7] A,6A,2 | 
[V:1] A6A2 | 
[V:2] z8 | 
[V:3] e8- | 
[V:4] E8- | 
[V:5] c6c2 | 
[V:6] A,,8 | 
[V:7] A,4A,4 | 
[V:1] c4c4 | 
[V:2] z8 | 
[V:3] e8 | 
[V:4] E8 | 
[V:5] c4A4 | 
[V:6] A,,4A,,4 | 
[V:7] A,8 | 
[V:1] B8 | 
[V:2] z8 | 
[V:3] z8 | 
[V:4] G8 | 
[V:5] B8 | 
[V:6] E,6E,2 | 
[V:7] z8 | 
[V:1] E6E2 | 
[V:2] z8 | 
[V:3] z8 | 
[V:4] G8 | 
[V:5] c4B4 | 
[V:6] E,4E,4 | 
[V:7] z8 | 
[V:1] F4F4- | 
[V:2] z8 | 
[V:3] z8 | 
[V:4] A8- | 
[V:5] d4D4 | 
[V:6] D,8- | 
[V:7] z8 | 
[V:1] F4F2F2 | 
[V:2] z8 | 
[V:3] z8 | 
[V:4] A8 | 
[V:5] A6A2 | 
[V:6] D,8 | 
[V:7] z4D,4 | 
[V:1] E4c4- | 
[V:2] A8- | 
[V:3] z8 | 
[V:4] z8 | 
[V:5] A4F4 | 
[V:6] A,,8- | 
[V:7] A,6A,2 | 
[V:1] c4c2c2 | 
[V:2] A8 | 
[V:3] z8 | 
[V:4] z8 | 
[V:5] E4e4- | 
[V:6] A,,8 | 
[V:7] A,4A,4 | 
[V:1] B8 | 
[V:2] G8- | 
[V:3] e8- | 
[V:4] z8 | 
[V:5] e2B2B4 | 
[V:6] z8 | 
[V:7] E,8 | 
[V:1] z2c4c2 | 
[V:2] G8 | 
[V:3] e8 | 
[V:4] z8 | 
[V:5] E8 | 
[V:6] z8 | 
[V:7] C,6C,2 | 
[V:1] A4A4 | 
[V:2] F8- | 
[V:3] d8- | 
[V:4] z8 | 
[V:5] F2F2F4 | 
[V:6] D,4A,4- | 
[V:7] D,8 | 
[V:1] d6A2 | 
[V:2] F8 | 
[V:3] d8 | 
[V:4] z8 | 
[V:5] z2F4D2 | 
[V:6] A,2A,2A,4 | 
[V:7] D,8 | 
[V:1] c4c4 | 
[V:2] E8- | 
[V:3] c8- | 
[V:4] A8- | 
[V:5] E4C4 | 
[V:6] A,4E,4- | 
[V:7] A,,4A,,4 | 
[V:1] A8 | 
[V:2] E8 | 
[V:3] c8 | 
[V:4] A8 | 
[V:5] z2c4A2 | 
[V:6] E,8- | 
[V:7] A,,8 | 
[V:1] B8- | 
[V:2] G8 | 
[V:3] B8- | 
[V:4] G8- | 
[V:5] e2e2e4 | 
[V:6] E,4E,4- | 
[V:7] z8 | 
[V:1] B8 | 
[V:2] G8 | 
[V:3] B8 | 
[V:4] G8 | 
[V:5] e4z4 | 
[V:6] E,4E,4 | 
[V:7] z8 | 
[V:1] z8 | 
[V:2] A8- | 
[V:3] d8 | 
[V:4] F8- | 
[V:5] z2f4f2 | 
[V:6] D,8 | 
[V:7] z4A,4- | 
[V:1] z8 | 
[V:2] A8 | 
[V:3] d8 | 
[V:4] F8 | 
[V:5] f4d4 | 
[V:6] D,8 | 
[V:7] A,2A,2A,2A,2- | 
[V:1] c6c2 | 
[V:2] z8 | 
[V:3] e8- | 
[V:4] E8- | 
[V:5] c2c4c2 | 
[V:6] A,,4A,,4 | 
[V:7] A,2E,2A,2A,2 | 
[V:1] c4A4 | 
[V:2] z8 | 
[V:3] e8 | 
[V:4] E8 | 
[V:5] c4c4 | 
[V:6] A,,8 | 
[V:7] A,4A,4 | 
[V:1] B6G2 | 
[V:2] z8 | 
[V:3] z8 | 
[V:4] G8 | 
[V:5] B8 | 
[V:6] z8 | 
[V:7] E,8- | 
[V:1] G8 | 
[V:2] z8 | 
[V:3] z8 | 
[V:4] G8 | 
[V:5] c8 | 
[V:6] z8 | 
[V:7] E,8 | 
[V:1] F6F2 | 
[V:2] z8 | 
[V:3] z8 | 
[V:4] A8- | 
[V:5] d6d2 | 
[V:6] F,6F,2 | 
[V:7] D,6D,2 | 
[V:1] F4D4 | 
[V:2] z8 | 
[V:3] z8 | 
[V:4] A8 | 
[V:5] d4d4 | 
[V:6] F,4F,4 | 
[V:7] D,4D,4 | 
[V:1] E6C2 | 
[V:2] A8- | 
[V:3] z8 | 
[V:4] z8 | 
[V:5] c6A2 | 
[V:6] E,8 | 
[V:7] A,,8- | 
[V:1] C4z4 | 
[V:2] A8 | 
[V:3] z8 | 
[V:4] z8 | 
[V:5] e4z4 | 
[V:6] z4C,4- | 
[V:7] A,,8 | 
[V:1] c6c2 | 
[V:2] G8- | 
[V:3] e8- | 
[V:4] z8 | 
[V:5] c6c2 | 
[V:6] C,4C,4 | 
[V:7] z8 | 
[V:1] B4c4 | 
[V:2] G8 | 
[V:3] e8 | 
[V:4] z8 | 
[V:5] G4E4 | 
[V:6] E,4C,4 | 
[V:7] z8 | 
[V:1] A8 | 
[V:2] F8- | 
[V:3] d8- | 
[V:4] z8 | 
[V:5] F8 | 
[V:6] D,8 | 
[V:7] z8 | 
[V:1] d4A4- | 
[V:2] F8 | 
[V:3] d8 | 
[V:4] z8 | 
[V:5] F4D4 | 
[V:6] A,8 | 
[V:7] D,8 | 
[V:1] A2A2c2A2 | 
[V:2] E8- | 
[V:3] c8- | 
[V:4] A8- | 
[V:5] E4z4 | 
[V:6] A,,8 | 
[V:7] A,8 | 
[V:1] c6A2 | 
[V:2] E8 | 
[V:3] c8 | 
[V:4] A8 | 
[V:5] z4e4- | 
[V:6] E,8 | 
[V:7] A,,8 | 
[V:1] B8- | 
[V:2] G8 | 
[V:3] B8- | 
[V:4] G8- | 
[V:5] e2e2e2e2 | 
[V:6] z8 | 
[V:7] E,8- | 
[V:1] B8 | 
[V:2] G8 | 
[V:3] B8 | 
[V:4] G8 | 
[V:5] e4e4 | 
[V:6] z8 | 
[V:7] E,8 | 
[V:1] z8 | 
[V:2] A8- | 
[V:3] d8 | 
[V:4] F8- | 
[V:5] f4A4- | 
[V:6] D,6D,2 | 
[V:7] z8 | 
[V:1] d4d4 | 
[V:2] A8 | 
[V:3] d8 | 
[V:4] F8 | 
[V:5] A4A4 | 
[V:6] D,4D,4 | 
[V:7] z8 | 
[V:1] c6c2 | 
[V:2] z8 | 
[V:3] e8- | 
[V:4] E8- | 
[V:5] A4c4 | 
[V:6] A,8 | 
[V:7] A,,6A,,2 | 
[V:1] A4A4 | 
[V:2] z8 | 
[V:3] e8 | 
[V:4] E8 | 
[V:5] c4c4 | 
[V:6] A,8 | 
[V:7] A,,4A,,4 | 
[V:1] B8 | 
[V:2] z8 | 
[V:3] z8 | 
[V:4] G8 | 
[V:5] B4e4 | 
[V:6] z8 | 
[V:7] E,6E,2 | 
[V:1] z8 | 
[V:2] z8 | 
[V:3] z8 | 
[V:4] G8 | 
[V:5] c2d2e2c2 | 
[V:6] z8 | 
[V:7] E,8 | 
[V:1] z2A4D2 | 
[V:2] F8- | 
[V:3] z8 | 
[V:4] A8- | 
[V:5] d8 | 
[V:6] D,6D,2 | 
[V:7] z8 | 
[V:1] A2D2A2B2 | 
[V:2] F8 | 
[V:3] z8 | 
[V:4] A8 | 
[V:5] z8 | 
[V:6] D,4D,4 | 
[V:7] z8 | 
[V:1] c6A2 | 
[V:2] E8 | 
[V:3] c8- | 
[V:4] z8 | 
[V:5] z8 | 
[V:6] A,6A,2 | 
[V:7] z8 | 
[V:1] A8 | 
[V:2] F8 | 
[V:3] c8 | 
[V:4] z8 | 
[V:5] z8 | 
[V:6] A,4A,4 | 
[V:7] F,6F,2 | 
[V:1] z4d4 | 
[V:2] z8 | 
[V:3] B8 | 
[V:4] z8 | 
[V:5] z4d4 | 
[V:6] E,2D,C,B,,4 | 
[V:7] G,4G,4 | 
[V:1] c6B2 | 
[V:2] z8 | 
[V:3] c8 | 
[V:4] z8 | 
[V:5] f4e4 | 
[V:6] A,,8 | 
[V:7] A,4A,4 | 
[V:1] A2G2F2E2 | 
[V:2] z8 | 
[V:3] z8 | 
[V:4] F8- | 
[V:5] f2e2d2c2 | 
[V:6] z8 | 
[V:7] D,4z4 | 
[V:1] D4d4 | 
[V:2] z8 | 
[V:3] z8 | 
[V:4] F8 | 
[V:5] d4d4 | 
[V:6] _B,,4B,,2B,,2 | 
[V:7] _B,4B,2B,2 | 
[V:1] c6B2 | 
[V:2] z8 | 
[V:3] z8 | 
[V:4] E8 | 
[V:5] e4e4 | 
[V:6] C,4C,4 | 
[V:7] G,4A,4 | 
[V:1] A2G2F2E2 | 
[V:2] z8 | 
[V:3] z8 | 
[V:4] F8 | 
[V:5] A4A4 | 
[V:6] D,4D,4 | 
[V:7] A,4D,4 | 
[V:1] D4d4- | 
[V:2] G8 | 
[V:3] z8 | 
[V:4] z8 | 
[V:5] _B4_B4 | 
[V:6] G,,8 | 
[V:7] D,8 | 
[V:1] d2cBc4 | 
[V:2] E8 | 
[V:3] z8 | 
[V:4] z8 | 
[V:5] A4z2E2 | 
[V:6] A,,4A,,4 | 
[V:7] z4z2A,2- | 
[V:1] d8 | 
[V:2] D8 | 
[V:3] d8 | 
[V:4] z8 | 
[V:5] F2_B2A4 | 
[V:6] D,4D,4 | 
[V:7] A,2G,4^F,2 | 
[V:1] z4d4 | 
[V:2] D8 | 
[V:3] B8 | 
[V:4] z8 | 
[V:5] G4z4 | 
[V:6] G,,8 | 
[V:7] G,8 | 
[V:1] c6c2 | 
[V:2] E8- | 
[V:3] A8 | 
[V:4] z8 | 
[V:5] z4c4 | 
[V:6] z8 | 
[V:7] z8 | 
[V:1] A4c4 | 
[V:2] E8 | 
[V:3] A8 | 
[V:4] z8 | 
[V:5] c6c2 | 
[V:6] z8 | 
[V:7] z8 | 
[V:1] B8 | 
[V:2] z8 | 
[V:3] B8- | 
[V:4] G8 | 
[V:5] d8 | 
[V:6] G,,8 | 
[V:7] z8 | 
[V:1] B4G4 | 
[V:2] z8 | 
[V:3] B8 | 
[V:4] E8 | 
[V:5] e8 | 
[V:6] G,6G,2 | 
[V:7] z8 | 
[V:1] d4d4 | 
[V:2] F8- | 
[V:3] z8 | 
[V:4] D8 | 
[V:5] A4d4- | 
[V:6] F,4F,4- | 
[V:7] z4_B,,4 | 
[V:1] A6B2 | 
[V:2] F8 | 
[V:3] z8 | 
[V:4] D8 | 
[V:5] d2c2A4- | 
[V:6] F,4F,4 | 
[V:7] D,8 | 
[V:1] c6B2 | 
[V:2] E8- | 
[V:3] c8- | 
[V:4] E8- | 
[V:5] A2B2c4- | 
[V:6] A,6A,2 | 
[V:7] A,,4A,,4 | 
[V:1] G6A2 | 
[V:2] E8 | 
[V:3] c8 | 
[V:4] E8 | 
[V:5] c2B2G4- | 
[V:6] E,4E,4 | 
[V:7] C,8 | 
[V:1] B2c2d4 | 
[V:2] D8- | 
[V:3] B8- | 
[V:4] z8 | 
[V:5] G2A2B2c2 | 
[V:6] G,4G,4 | 
[V:7] G,,4G,,4- | 
[V:1] G2A2B2G2 | 
[V:2] D8 | 
[V:3] B8 | 
[V:4] z8 | 
[V:5] d4G2d2 | 
[V:6] D,8 | 
[V:7] G,,4G,,4 | 
[V:1] A4F2A2- | 
[V:2] z8 | 
[V:3] A8- | 
[V:4] F8- | 
[V:5] f4d2f2- | 
[V:6] z8 | 
[V:7] D,6D,2 | 
[V:1] AGFEF2ED | 
[V:2] A8 | 
[V:3] A8 | 
[V:4] F8 | 
[V:5] fedcd4 | 
[V:6] z8 | 
[V:7] D,4D,4 | 
[V:1] C2A,B,CDE2- | 
[V:2] A8- | 
[V:3] A8- | 
[V:4] E8- | 
[V:5] e4z2A2 | 
[V:6] z8 | 
[V:7] A,,8- | 
[V:1] EDD3^CC2 | 
[V:2] A8- | 
[V:3] A8- | 
[V:4] E8 | 
[V:5] c2d2e4 | 
[V:6] z4C,4 | 
[V:7] A,,8 | 
[V:1] D8 |]  
[V:2] A8 |]  
[V:3] A8 |]  
[V:4] D8 |]  
[V:5] [F8f8] |]  
[V:6] F,8 |]  
[V:7] D,8 |]  



